img/svg/footer-facebook.svg

<svg width="11" height="11" viewBox="0 0 11 11" fill="none" xmlns="http://www.w3.org/2000/svg">
<path d="M10.75 1.375C10.75 1.07031 10.6328 0.8125 10.4219 0.578125C10.1875 0.367188 9.92969 0.25 9.625 0.25H1.375C1.04688 0.25 0.789062 0.367188 0.578125 0.578125C0.34375 0.8125 0.25 1.07031 0.25 1.375V9.625C0.25 9.95312 0.34375 10.2109 0.578125 10.4219C0.789062 10.6562 1.04688 10.75 1.375 10.75H5.99219V6.60156H4.5625V5.00781H5.99219V3.83594C5.99219 3.17969 6.15625 2.6875 6.53125 2.3125C6.90625 1.9375 7.39844 1.75 8.03125 1.75C8.5 1.75 8.92188 1.77344 9.25 1.82031V3.22656H8.40625C8.10156 3.22656 7.89062 3.29688 7.77344 3.4375C7.67969 3.57812 7.63281 3.76562 7.63281 4V5.00781H9.25L9.03906 6.60156H7.63281V10.75H9.625C9.92969 10.75 10.1875 10.6562 10.4219 10.4219C10.6328 10.2109 10.75 9.95312 10.75 9.625V1.375Z" fill="white"/>
</svg>

<svg width="11" height="11" viewBox="0 0 11 11" fill="none" xmlns="http://www.w3.org/2000/svg"><path d="M10.75 1.375c0-.305-.117-.563-.328-.797C10.187.368 9.93.25 9.625.25h-8.25C1.047.25.789.367.578.578a1.062 1.062 0 00-.328.797v8.25c0 .328.094.586.328.797.211.234.469.328.797.328h4.617V6.602h-1.43V5.008h1.43V3.836c0-.656.164-1.148.54-1.523.374-.376.866-.563 1.5-.563.468 0 .89.023 1.218.07v1.407h-.844c-.304 0-.515.07-.633.21-.093.141-.14.329-.14.563v1.008H9.25l-.21 1.594H7.632v4.148h1.992c.305 0 .563-.094.797-.328.21-.211.328-.469.328-.797v-8.25z" fill="#fff"/></svg>
